resources/svg/layout-left-fill.svg

<svg fill="currentColor" viewBox="0 0 24 24" xmlns="http://www.w3.org/2000/svg"><path d="M21 3C21.5523 3 22 3.44772 22 4V20C22 20.5523 21.5523 21 21 21H9V3H21ZM7 21H3C2.44772 21 2 20.5523 2 20V4C2 3.44772 2.44772 3 3 3H7V21Z"/></svg>

<svg xmlns="http://www.w3.org/2000/svg" viewBox="0 0 24 24" fill="currentColor">
    <g>
        <path fill="none" d="M0 0h24v24H0z"/>
        <path d="M21 3a1 1 0 0 1 1 1v16a1 1 0 0 1-1 1H9V3h12zM7 21H3a1 1 0 0 1-1-1V4a1 1 0 0 1 1-1h4v18z"/>
    </g>
</svg>
